apps/website/src/assets/devsuite.svg

<svg width="366" height="96" viewBox="0 0 366 96" fill="none" xmlns="http://www.w3.org/2000/svg">
<g clip-path="url(#clip0_1858_119)">
<mask id="mask0_1858_119" style="mask-type:luminance" maskUnits="userSpaceOnUse" x="0" y="0" width="96" height="96">
<path d="M96 0H0V96H96V0Z" fill="white"/>
</mask>
<g mask="url(#mask0_1858_119)">
<path fill-rule="evenodd" clip-rule="evenodd" d="M49.5086 0C50.569 0 51.4286 0.859613 51.4286 1.92V20.484C51.4286 22.5943 54.3384 23.1599 55.129 21.2032L62.0827 3.99099C62.4802 3.00781 63.599 2.53281 64.5826 2.93004L67.38 4.06028C68.363 4.45751 68.8382 5.57654 68.4408 6.55973L61.0272 24.9095C60.2434 26.8488 62.6856 28.4654 64.165 26.9864L78.1589 12.9921C78.9091 12.2423 80.1245 12.2423 80.8742 12.9921L83.0078 15.1256C83.7576 15.8754 83.7576 17.091 83.0078 17.8408L70.441 30.4077C68.941 31.9079 70.6234 34.3741 72.5674 33.5247L88.8528 26.4094C89.8248 25.9848 90.9566 26.4284 91.381 27.4001L92.5891 30.1649C93.0134 31.1366 92.5699 32.2684 91.5984 32.693L72.8323 40.892C70.9258 41.725 71.5205 44.5714 73.6008 44.5714H94.08C95.1403 44.5714 96 45.431 96 46.4914V49.5086C96 50.569 95.1403 51.4286 94.08 51.4286H73.6013C71.5205 51.4286 70.9262 54.275 72.8323 55.1078L91.5984 63.3072C92.5699 63.7315 93.0134 64.8634 92.5891 65.8349L91.381 68.5997C90.9566 69.5717 89.8248 70.0152 88.8528 69.5904L72.5674 62.4754C70.6234 61.6258 68.941 64.092 70.441 65.5925L83.0078 78.1589C83.7576 78.9091 83.7576 80.1245 83.0078 80.8742L80.8742 83.0078C80.1245 83.7576 78.9091 83.7576 78.1589 83.0078L64.165 69.0134C62.6856 67.5346 60.2434 69.1512 61.0272 71.0904L68.4408 89.4403C68.8382 90.4234 68.363 91.5422 67.38 91.9397L64.5826 93.0701C63.599 93.467 62.4802 92.9923 62.0827 92.0088L55.129 74.797C54.3384 72.84 51.4286 73.4059 51.4286 75.516V94.08C51.4286 95.1403 50.569 96 49.5086 96H46.4914C45.431 96 44.5714 95.1403 44.5714 94.08V75.516C44.5714 73.4059 41.6617 72.84 40.8712 74.797L33.917 92.0088C33.5198 92.9923 32.4008 93.467 31.4176 93.0701L28.6201 91.9397C27.637 91.5422 27.162 90.4234 27.5592 89.4403L34.973 71.0904C35.7566 69.1512 33.3142 67.5346 31.8352 69.0134L17.8409 83.0078C17.0911 83.7576 15.8754 83.7576 15.1256 83.0078L12.9922 80.8742C12.2424 80.1245 12.2424 78.9091 12.9922 78.1589L25.559 65.592C27.0592 64.092 25.3768 61.6258 23.4326 62.4754L7.14696 69.5904C6.1753 70.0152 5.04341 69.5717 4.61887 68.5997L3.41091 65.8349C2.98637 64.8634 3.42993 63.7315 4.40162 63.3072L23.1675 55.1078C25.074 54.275 24.4793 51.4286 22.3988 51.4286H1.92C0.859613 51.4286 0 50.569 0 49.5086V46.4914C0 45.431 0.859613 44.5714 1.92 44.5714H22.3989C24.4793 44.5714 25.074 41.725 23.1676 40.892L4.4016 32.693C3.42991 32.2684 2.98636 31.1366 3.4109 30.1649L4.61886 27.4001C5.04341 26.4284 6.17525 25.9848 7.14696 26.4094L23.4326 33.5247C25.3768 34.3742 27.0592 31.9079 25.559 30.4077L12.9922 17.8409C12.2424 17.0911 12.2424 15.8754 12.9922 15.1256L15.1256 12.9922C15.8754 12.2424 17.0911 12.2424 17.8409 12.9922L31.8352 26.9865C33.3142 28.4654 35.7565 26.8488 34.973 24.9096L27.5592 6.55973C27.162 5.57654 27.637 4.45751 28.6201 4.06028L31.4176 2.93004C32.4008 2.53281 33.5198 3.00781 33.917 3.99099L40.8712 21.2032C41.6617 23.1599 44.5714 22.5943 44.5714 20.484V1.92C44.5714 0.859613 45.431 0 46.4914 0H49.5086ZM48 68.5714C59.3611 68.5714 68.5714 59.3611 68.5714 48C68.5714 36.6387 59.3611 27.4286 48 27.4286C36.6387 27.4286 27.4286 36.6387 27.4286 48C27.4286 59.3611 36.6387 68.5714 48 68.5714Z" fill="#262626"/>
</g>
</g>
<path d="M350.973 72.04C347.853 72.04 345.08 71.325 342.653 69.895C340.226 68.4217 338.32 66.385 336.933 63.785C335.59 61.1417 334.918 58.1084 334.918 54.685C334.918 51.3484 335.568 48.38 336.868 45.78C338.168 43.1367 339.966 41.1 342.263 39.67C344.603 38.1967 347.246 37.46 350.193 37.46C353.14 37.46 355.761 38.1967 358.058 39.67C360.355 41.1 362.131 43.1367 363.388 45.78C364.688 48.4234 365.338 51.4567 365.338 54.88V56.505H341.288C341.288 58.455 341.678 60.1884 342.458 61.705C343.281 63.1784 344.408 64.3484 345.838 65.215C347.268 66.0384 348.915 66.45 350.778 66.45C352.815 66.45 354.548 65.9517 355.978 64.955C357.408 63.9584 358.361 62.615 358.838 60.925L365.208 61.575C364.601 64.7384 362.998 67.2734 360.398 69.18C357.841 71.0867 354.7 72.04 350.973 72.04ZM358.903 51.435C358.903 49.7884 358.535 48.3367 357.798 47.08C357.061 45.8234 356.021 44.8484 354.678 44.155C353.335 43.4184 351.818 43.05 350.128 43.05C348.395 43.05 346.856 43.4184 345.513 44.155C344.17 44.8484 343.13 45.8234 342.393 47.08C341.656 48.3367 341.288 49.7884 341.288 51.435H358.903Z" fill="black"/>
<path d="M326.951 71C324.784 71 322.964 70.6534 321.491 69.96C320.061 69.2667 318.977 68.2267 318.241 66.84C317.547 65.41 317.201 63.6117 317.201 61.445V28.1H323.376V61.51C323.376 62.81 323.701 63.785 324.351 64.435C325.001 65.085 325.976 65.41 327.276 65.41H333.126V71H326.951ZM310.181 38.5H333.126V44.09H310.181V38.5Z" fill="black"/>
<path d="M301.377 38.5H307.552V71H301.377V38.5ZM300.727 26.605H308.267V33.495H300.727V26.605Z" fill="black"/>
<path d="M277.995 72.04C275.829 72.04 273.944 71.52 272.34 70.48C270.737 69.44 269.502 67.9667 268.635 66.06C267.812 64.1533 267.4 61.8783 267.4 59.235V38.5H273.575V59.105C273.575 61.4017 274.117 63.2 275.2 64.5C276.284 65.8 277.822 66.45 279.815 66.45C282.502 66.45 284.647 65.345 286.25 63.135C287.897 60.925 288.72 57.9783 288.72 54.295L289.89 59.56C289.89 61.9 289.37 64.0233 288.33 65.93C287.334 67.8367 285.925 69.3317 284.105 70.415C282.285 71.4983 280.249 72.04 277.995 72.04ZM288.72 38.5H294.895V71H288.72V38.5Z" fill="black"/>
<path d="M247.198 72.04C243.818 72.04 240.785 71.2817 238.098 69.765C235.455 68.2484 233.375 66.1684 231.858 63.525C230.385 60.8384 229.648 57.805 229.648 54.425L236.018 53.775C236.018 56.115 236.473 58.26 237.383 60.21C238.337 62.1167 239.68 63.6334 241.413 64.76C243.147 65.8867 245.14 66.45 247.393 66.45C249.04 66.45 250.6 66.1467 252.073 65.54C253.547 64.9334 254.738 64.0667 255.648 62.94C256.558 61.8134 257.013 60.47 257.013 58.91C257.013 57.3067 256.515 55.9634 255.518 54.88C254.565 53.7967 253.373 52.93 251.943 52.28C250.513 51.63 248.542 50.8717 246.028 50.005C243.038 48.965 240.612 48.0117 238.748 47.145C236.928 46.235 235.368 44.9784 234.068 43.375C232.812 41.7284 232.183 39.67 232.183 37.2C232.183 34.6867 232.833 32.4767 234.133 30.57C235.433 28.62 237.188 27.125 239.398 26.085C241.652 25.0017 244.122 24.46 246.808 24.46C249.452 24.46 251.878 24.9584 254.088 25.955C256.298 26.9517 258.118 28.3817 259.548 30.245C260.978 32.1084 261.802 34.2967 262.018 36.81L255.648 37.46C255.475 35.9867 254.955 34.6867 254.088 33.56C253.222 32.4334 252.138 31.5667 250.838 30.96C249.538 30.3534 248.13 30.05 246.613 30.05C244.36 30.05 242.453 30.6567 240.893 31.87C239.333 33.04 238.553 34.6217 238.553 36.615C238.553 38.0884 239.008 39.3234 239.918 40.32C240.872 41.3167 242.042 42.14 243.428 42.79C244.815 43.3967 246.722 44.09 249.148 44.87C252.182 45.9534 254.63 46.95 256.493 47.86C258.4 48.77 260.025 50.07 261.368 51.76C262.712 53.4067 263.383 55.5517 263.383 58.195C263.383 60.795 262.668 63.1567 261.238 65.28C259.852 67.36 257.923 69.0067 255.453 70.22C253.027 71.4334 250.275 72.04 247.198 72.04Z" fill="black"/>
<path d="M198.016 38.5H204.061L214.201 66.775H212.186L222.911 38.5H228.956L216.606 71H209.651L198.016 38.5Z" fill="black"/>
<path d="M182.936 72.04C179.816 72.04 177.043 71.325 174.616 69.895C172.189 68.4217 170.283 66.385 168.896 63.785C167.553 61.1417 166.881 58.1084 166.881 54.685C166.881 51.3484 167.531 48.38 168.831 45.78C170.131 43.1367 171.929 41.1 174.226 39.67C176.566 38.1967 179.209 37.46 182.156 37.46C185.103 37.46 187.724 38.1967 190.021 39.67C192.318 41.1 194.094 43.1367 195.351 45.78C196.651 48.4234 197.301 51.4567 197.301 54.88V56.505H173.251C173.251 58.455 173.641 60.1884 174.421 61.705C175.244 63.1784 176.371 64.3484 177.801 65.215C179.231 66.0384 180.878 66.45 182.741 66.45C184.778 66.45 186.511 65.9517 187.941 64.955C189.371 63.9584 190.324 62.615 190.801 60.925L197.171 61.575C196.564 64.7384 194.961 67.2734 192.361 69.18C189.804 71.0867 186.663 72.04 182.936 72.04ZM190.866 51.435C190.866 49.7884 190.498 48.3367 189.761 47.08C189.024 45.8234 187.984 44.8484 186.641 44.155C185.298 43.4184 183.781 43.05 182.091 43.05C180.358 43.05 178.819 43.4184 177.476 44.155C176.133 44.8484 175.093 45.8234 174.356 47.08C173.619 48.3367 173.251 49.7884 173.251 51.435H190.866Z" fill="black"/>
<path d="M127.135 25.5H141.695C145.941 25.5 149.711 26.4533 153.005 28.36C156.298 30.2667 158.855 32.9533 160.675 36.42C162.495 39.8433 163.405 43.7867 163.405 48.25C163.405 52.7133 162.495 56.6783 160.675 60.145C158.855 63.5683 156.298 66.2333 153.005 68.14C149.711 70.0467 145.941 71 141.695 71H127.135V25.5ZM141.695 65.41C144.685 65.41 147.35 64.695 149.69 63.265C152.03 61.7917 153.828 59.7767 155.085 57.22C156.385 54.62 157.035 51.63 157.035 48.25C157.035 44.87 156.385 41.9017 155.085 39.345C153.828 36.745 152.03 34.73 149.69 33.3C147.35 31.8267 144.685 31.09 141.695 31.09H133.505V65.41H141.695Z" fill="black"/>
<defs>
<clipPath id="clip0_1858_119">
<rect width="96" height="96" fill="white"/>
</clipPath>
</defs>
</svg>

<svg fill="none" xmlns="http://www.w3.org/2000/svg" viewBox="0 0 366 96">
  <path  d="M49.509 0c1.06 0 1.92.86 1.92 1.92v18.564c0 2.11 2.91 2.676 3.7.72L62.083 3.99a1.92 1.92 0 0 1 2.5-1.061l2.797 1.13a1.92 1.92 0 0 1 1.06 2.5l-7.413 18.35c-.784 1.939 1.659 3.555 3.138 2.076l13.994-13.994a1.92 1.92 0 0 1 2.715 0l2.134 2.134c.75.75.75 1.965 0 2.715L70.44 30.408c-1.5 1.5.182 3.966 2.126 3.117l16.286-7.116a1.92 1.92 0 0 1 2.528.991l1.208 2.765a1.92 1.92 0 0 1-.99 2.528l-18.767 8.199c-1.906.833-1.311 3.68.769 3.68H94.08c1.06 0 1.92.859 1.92 1.92v3.017c0 1.06-.86 1.92-1.92 1.92H73.601c-2.08 0-2.675 2.846-.769 3.679l18.766 8.2a1.92 1.92 0 0 1 .991 2.527L91.381 68.6a1.92 1.92 0 0 1-2.528.99l-16.286-7.115c-1.944-.85-3.626 1.617-2.126 3.117L83.008 78.16c.75.75.75 1.965 0 2.715l-2.134 2.134a1.92 1.92 0 0 1-2.715 0L64.165 69.013c-1.48-1.478-3.922.138-3.138 2.077l7.414 18.35a1.92 1.92 0 0 1-1.061 2.5l-2.797 1.13a1.92 1.92 0 0 1-2.5-1.061l-6.954-17.212c-.79-1.957-3.7-1.391-3.7.719V94.08c0 1.06-.86 1.92-1.92 1.92H46.49a1.92 1.92 0 0 1-1.92-1.92V75.516c0-2.11-2.91-2.676-3.7-.719l-6.954 17.212a1.92 1.92 0 0 1-2.5 1.061l-2.797-1.13a1.92 1.92 0 0 1-1.06-2.5l7.413-18.35c.784-1.939-1.659-3.555-3.138-2.077L17.841 83.008a1.92 1.92 0 0 1-2.715 0l-2.134-2.134a1.92 1.92 0 0 1 0-2.715L25.56 65.592c1.5-1.5-.182-3.966-2.126-3.117L7.147 69.59a1.92 1.92 0 0 1-2.528-.99L3.41 65.835a1.92 1.92 0 0 1 .99-2.528l18.767-8.2c1.906-.832 1.311-3.678-.77-3.678H1.92A1.92 1.92 0 0 1 0 49.509V46.49c0-1.06.86-1.92 1.92-1.92h20.479c2.08 0 2.675-2.846.769-3.679L4.402 32.693a1.92 1.92 0 0 1-.991-2.528L4.619 27.4a1.92 1.92 0 0 1 2.528-.99l16.286 7.115c1.944.85 3.626-1.617 2.126-3.117L12.992 17.84a1.92 1.92 0 0 1 0-2.715l2.134-2.134a1.92 1.92 0 0 1 2.715 0l13.994 13.994c1.48 1.48 3.922-.137 3.138-2.076L27.559 6.56a1.92 1.92 0 0 1 1.061-2.5l2.798-1.13a1.92 1.92 0 0 1 2.499 1.061l6.954 17.212c.79 1.957 3.7 1.391 3.7-.719V1.92c0-1.06.86-1.92 1.92-1.92h3.018ZM48 68.571c11.361 0 20.571-9.21 20.571-20.571S59.361 27.429 48 27.429 27.429 36.639 27.429 48 36.639 68.571 48 68.571Z"/>
  <path d="M350.973 72.04c-3.12 0-5.893-.715-8.32-2.145-2.427-1.473-4.333-3.51-5.72-6.11-1.343-2.643-2.015-5.677-2.015-9.1 0-3.337.65-6.305 1.95-8.905 1.3-2.643 3.098-4.68 5.395-6.11 2.34-1.473 4.983-2.21 7.93-2.21s5.568.737 7.865 2.21c2.297 1.43 4.073 3.467 5.33 6.11 1.3 2.643 1.95 5.677 1.95 9.1v1.625h-24.05c0 1.95.39 3.683 1.17 5.2a9.384 9.384 0 0 0 3.38 3.51c1.43.823 3.077 1.235 4.94 1.235 2.037 0 3.77-.498 5.2-1.495 1.43-.997 2.383-2.34 2.86-4.03l6.37.65c-.607 3.163-2.21 5.698-4.81 7.605-2.557 1.907-5.698 2.86-9.425 2.86Zm7.93-20.605c0-1.647-.368-3.098-1.105-4.355-.737-1.257-1.777-2.232-3.12-2.925-1.343-.737-2.86-1.105-4.55-1.105-1.733 0-3.272.368-4.615 1.105-1.343.693-2.383 1.668-3.12 2.925-.737 1.257-1.105 2.708-1.105 4.355h17.615ZM326.951 71c-2.167 0-3.987-.347-5.46-1.04-1.43-.693-2.514-1.733-3.25-3.12-.694-1.43-1.04-3.228-1.04-5.395V28.1h6.175v33.41c0 1.3.325 2.275.975 2.925.65.65 1.625.975 2.925.975h5.85V71h-6.175Zm-16.77-32.5h22.945v5.59h-22.945V38.5ZM301.377 38.5h6.175V71h-6.175V38.5Zm-.65-11.895h7.54v6.89h-7.54v-6.89ZM277.995 72.04c-2.166 0-4.051-.52-5.655-1.56-1.603-1.04-2.838-2.513-3.705-4.42-.823-1.907-1.235-4.182-1.235-6.825V38.5h6.175v20.605c0 2.297.542 4.095 1.625 5.395 1.084 1.3 2.622 1.95 4.615 1.95 2.687 0 4.832-1.105 6.435-3.315 1.647-2.21 2.47-5.157 2.47-8.84l1.17 5.265c0 2.34-.52 4.463-1.56 6.37-.996 1.907-2.405 3.402-4.225 4.485-1.82 1.083-3.856 1.625-6.11 1.625ZM288.72 38.5h6.175V71h-6.175V38.5ZM247.198 72.04c-3.38 0-6.413-.758-9.1-2.275a16.594 16.594 0 0 1-6.24-6.24c-1.473-2.687-2.21-5.72-2.21-9.1l6.37-.65c0 2.34.455 4.485 1.365 6.435.954 1.907 2.297 3.423 4.03 4.55 1.734 1.127 3.727 1.69 5.98 1.69 1.647 0 3.207-.303 4.68-.91 1.474-.607 2.665-1.473 3.575-2.6.91-1.127 1.365-2.47 1.365-4.03 0-1.603-.498-2.947-1.495-4.03-.953-1.083-2.145-1.95-3.575-2.6-1.43-.65-3.401-1.408-5.915-2.275-2.99-1.04-5.416-1.993-7.28-2.86a14.06 14.06 0 0 1-4.68-3.77c-1.256-1.647-1.885-3.705-1.885-6.175 0-2.513.65-4.723 1.95-6.63 1.3-1.95 3.055-3.445 5.265-4.485 2.254-1.083 4.724-1.625 7.41-1.625 2.644 0 5.07.498 7.28 1.495 2.21.997 4.03 2.427 5.46 4.29 1.43 1.863 2.254 4.052 2.47 6.565l-6.37.65c-.173-1.473-.693-2.773-1.56-3.9a8.655 8.655 0 0 0-3.25-2.6c-1.3-.607-2.708-.91-4.225-.91-2.253 0-4.16.607-5.72 1.82-1.56 1.17-2.34 2.752-2.34 4.745 0 1.473.455 2.708 1.365 3.705.954.997 2.124 1.82 3.51 2.47 1.387.607 3.294 1.3 5.72 2.08 3.034 1.083 5.482 2.08 7.345 2.99 1.907.91 3.532 2.21 4.875 3.9 1.344 1.647 2.015 3.792 2.015 6.435 0 2.6-.715 4.962-2.145 7.085-1.386 2.08-3.315 3.727-5.785 4.94-2.426 1.213-5.178 1.82-8.255 1.82ZM198.016 38.5h6.045l10.14 28.275h-2.015L222.911 38.5h6.045L216.606 71h-6.955l-11.635-32.5ZM182.936 72.04c-3.12 0-5.893-.715-8.32-2.145-2.427-1.473-4.333-3.51-5.72-6.11-1.343-2.643-2.015-5.677-2.015-9.1 0-3.337.65-6.305 1.95-8.905 1.3-2.643 3.098-4.68 5.395-6.11 2.34-1.473 4.983-2.21 7.93-2.21s5.568.737 7.865 2.21c2.297 1.43 4.073 3.467 5.33 6.11 1.3 2.643 1.95 5.677 1.95 9.1v1.625h-24.05c0 1.95.39 3.683 1.17 5.2a9.384 9.384 0 0 0 3.38 3.51c1.43.823 3.077 1.235 4.94 1.235 2.037 0 3.77-.498 5.2-1.495 1.43-.997 2.383-2.34 2.86-4.03l6.37.65c-.607 3.163-2.21 5.698-4.81 7.605-2.557 1.907-5.698 2.86-9.425 2.86Zm7.93-20.605c0-1.647-.368-3.098-1.105-4.355-.737-1.257-1.777-2.232-3.12-2.925-1.343-.737-2.86-1.105-4.55-1.105-1.733 0-3.272.368-4.615 1.105-1.343.693-2.383 1.668-3.12 2.925-.737 1.257-1.105 2.708-1.105 4.355h17.615ZM127.135 25.5h14.56c4.246 0 8.016.953 11.31 2.86 3.293 1.907 5.85 4.593 7.67 8.06 1.82 3.423 2.73 7.367 2.73 11.83s-.91 8.428-2.73 11.895c-1.82 3.423-4.377 6.088-7.67 7.995-3.294 1.907-7.064 2.86-11.31 2.86h-14.56V25.5Zm14.56 39.91c2.99 0 5.655-.715 7.995-2.145 2.34-1.473 4.138-3.488 5.395-6.045 1.3-2.6 1.95-5.59 1.95-8.97 0-3.38-.65-6.348-1.95-8.905-1.257-2.6-3.055-4.615-5.395-6.045-2.34-1.473-5.005-2.21-7.995-2.21h-8.19v34.32h8.19Z"/>
</svg>
